svgs/thin/bed-pulse.svg

<svg xmlns="http://www.w3.org/2000/svg" viewBox="0 0 640 512"><!--! Font Awesome Pro 6.0.0-alpha3 by @fontawesome - https://fontawesome.com License - https://fontawesome.com/license (Commercial License) --><path d="M223.8 80h123.3l45.78 91.57C394.2 174.3 396.1 176 400 176h.3438c3.125-.1406 5.906-2.109 7.094-5.031l57.38-143.4l24.03 48.06C490.2 78.29 492.1 80 496 80h136c4.406 0 8-3.59 8-8.012s-3.594-7.986-8-7.986h-131.1l-29.78-59.58c-1.406-2.812-3.656-4.562-7.5-4.422c-3.125 .1406-5.906 2.109-7.094 5.031l-57.38 143.4l-40.03-80.06C357.8 65.72 355 64 352 64L238.6 64.01c-22.5 .0156-38.38 .25-38.59 0c-2.125 0-4.156 .8281-5.656 2.328C192.9 67.83 192 69.87 192 71.99C192 79.99 192 80 223.8 80zM144 320C188.1 320 224 284.1 224 240S188.1 160 144 160S64 195.9 64 240S99.88 320 144 320zM144 176c35.29 0 64 28.71 64 64s-28.71 64-64 64s-64-28.71-64-64S108.7 176 144 176zM528 160h-72C451.6 160 448 163.6 448 168s3.582 8 8 8h72c53.02 0 96 42.98 96 96V352L288 352V176L344 176C348.4 176 352 172.4 352 168S348.4 160 344 160H288C279.2 160 272 167.2 272 176V352h-256V72C16 67.59 12.42 64 8 64S0 67.59 0 72v432C0 508.4 3.578 512 8 512s8-3.594 8-8V448h608v56c0 4.406 3.578 8 8 8S640 508.4 640 504V272C640 210.1 589.9 160 528 160zM624 432h-608v-64h608V432z"/></svg>

<svg xmlns="http://www.w3.org/2000/svg" viewBox="0 0 640 512"><!-- Font Awesome Pro 6.0.0-alpha2 by @fontawesome - https://fontawesome.com License - https://fontawesome.com/license (Commercial License) --><path d="M223.75 80.004H347.062L392.844 171.578C394.219 174.297 396.969 176 400 176H400.344C403.469 175.859 406.25 173.891 407.438 170.969L464.813 27.521L488.844 75.582C490.188 78.285 492.969 80.004 496 80.004H632C636.406 80.004 640 76.426 640 72.004S636.406 64.006 632 64.006H500.938L471.156 4.43C469.75 1.617 467.5 -0.133 463.656 0.008C460.531 0.148 457.75 2.117 456.562 5.039L399.187 148.486L359.156 68.426C357.812 65.725 355.031 64.006 352 64.006C352 64.006 283.656 64.006 238.625 64.006C216.125 64.021 200.25 64.256 200.031 64.006C197.906 64.006 195.875 64.834 194.375 66.334C192.875 67.832 192 69.879 192 72.004C192 80.004 192 80.004 223.75 80.004ZM144 320C188.125 320 224 284.125 224 240S188.125 160 144 160S64 195.875 64 240S99.875 320 144 320ZM144 176C179.289 176 208 204.711 208 240S179.289 304 144 304S80 275.289 80 240S108.711 176 144 176ZM528 160H456C451.582 160 448 163.582 448 168S451.582 176 456 176H528C581.02 176 624 218.98 624 272V352H288V176H344C348.418 176 352 172.418 352 168S348.418 160 344 160H288C279.164 160 272 167.164 272 176V352H16V72C16 67.594 12.422 64 8 64S0 67.594 0 72V504C0 508.406 3.578 512 8 512S16 508.406 16 504V448H624V504C624 508.406 627.578 512 632 512S640 508.406 640 504V272C640 210.145 589.855 160 528 160ZM624 432H16V368H624V432Z"/></svg>
